X: 14
T: Shangao luyuan jianbushang
%%abc-version 2.0
%%abcx-abcm2ps-target-version 5.9.1 (29 Sep 2008)
%%abc-creator hum2abc beta
%%abcx-conversion-date 2013/10/02 07:52:29
%%abc-edited-by Helmut Schaffrath
%%humdrum-veritas 1604396499
%%humdrum-veritas-data 893671255
%%continueall 1
%%barnumbers 0
L: 1/16
M: 2/4
K: A
c'2b4c' b [I:setbarnb 1]| 
a f e cB4 | 
b b b b f2 e' a | 
b8 | 
c'2b4c' b | 
a f e cB4 | 
b b b b f2 e' a | 
e8 |]  



